assets/img/braze_icons/image-04.svg

<svg fill="none" height="24" viewBox="0 0 24 24" width="24" xmlns="http://www.w3.org/2000/svg"><g fill="#801ed7"><path clip-rule="evenodd" d="m7.7587 2h8.4826c.805-.00001 1.4693-.00002 2.0105.04419.5621.04593 1.0788.14449 1.5642.39178.7526.3835 1.3645.99542 1.748 1.74807.2473.48533.3459 1.00204.3918 1.56413.0442.54122.0442 1.2056.0442 2.0106v8.48243c0 .805 0 1.4694-.0442 2.0106-.0459.5621-.1445 1.0788-.3918 1.5642-.3835.7526-.9954 1.3645-1.748 1.748-.4854.2473-1.0021.3459-1.5642.3918-.5412.0442-1.2055.0442-2.0105.0442h-8.48262c-.80496 0-1.46932 0-2.01051-.0442-.56209-.0459-1.0788-.1445-1.56413-.3918-.75265-.3835-1.36457-.9954-1.74807-1.748-.24729-.4854-.34585-1.0021-.39178-1.5642-.04421-.5412-.0442-1.2055-.04419-2.0105v-8.4826c-.00001-.80497-.00002-1.46933.04419-2.01053.04593-.56209.14449-1.0788.39178-1.56413.3835-.75265.99542-1.36457 1.74807-1.74807.48533-.24729 1.00204-.34585 1.56413-.39178.5412-.04421 1.20556-.0442 2.01053-.04419zm-1.84766 2.03755c-.43842.03582-.66262.10075-.81902.18044-.37632.19174-.68229.49771-.87403.87403-.07969.1564-.14462.3806-.18044.81902-.03677.45009-.03755 1.03238-.03755 1.88896v8.4c0 .8566.00078 1.4389.03755 1.889.03582.4384.10075.6626.18044.819.19174.3763.49771.6823.87403.874.1564.0797.3806.1446.81902.1804.45009.0368 1.03238.0376 1.88896.0376h8.4c.8566 0 1.4389-.0008 1.889-.0376.4384-.0358.6626-.1007.819-.1804.3763-.1917.6823-.4977.874-.874.0797-.1564.1446-.3806.1804-.819.0368-.4501.0376-1.0324.0376-1.889v-8.4c0-.85658-.0008-1.43887-.0376-1.88896-.0358-.43842-.1007-.66262-.1804-.81902-.1917-.37632-.4977-.68229-.874-.87403-.1564-.07969-.3806-.14462-.819-.18044-.4501-.03677-1.0324-.03755-1.889-.03755h-8.4c-.85658 0-1.43887.00078-1.88896.03755z" fill-rule="evenodd"/><path d="m14.3575 6.98551c-.1734-.28904-.4808-.47126-.8176-.48471s-.6577.14368-.8536.41797l-1.9051 2.66712-1.1812-.88589c-.23223-.17417-.52868-.23883-.81234-.17719-.28367.06164-.52655.2435-.66555.49834l-3 5.50005c-.16901.3098-.16217.6858.01799.9893s.50696.4895.8599.4895h12c.3603 0 .6927-.1938.8702-.5073s.1727-.6983-.0127-1.0072z"/></g></svg>

<svg width="24" height="24" viewBox="0 0 24 24" fill="none" xmlns="http://www.w3.org/2000/svg">
<path fill-rule="evenodd" clip-rule="evenodd" d="M7.7587 2H16.2413C17.0463 1.99999 17.7106 1.99998 18.2518 2.04419C18.8139 2.09012 19.3306 2.18868 19.816 2.43597C20.5686 2.81947 21.1805 3.43139 21.564 4.18404C21.8113 4.66937 21.9099 5.18608 21.9558 5.74817C22 6.28939 22 6.95377 22 7.75877V16.2412C22 17.0462 22 17.7106 21.9558 18.2518C21.9099 18.8139 21.8113 19.3306 21.564 19.816C21.1805 20.5686 20.5686 21.1805 19.816 21.564C19.3306 21.8113 18.8139 21.9099 18.2518 21.9558C17.7106 22 17.0463 22 16.2413 22H7.75868C6.95372 22 6.28936 22 5.74817 21.9558C5.18608 21.9099 4.66937 21.8113 4.18404 21.564C3.43139 21.1805 2.81947 20.5686 2.43597 19.816C2.18868 19.3306 2.09012 18.8139 2.04419 18.2518C1.99998 17.7106 1.99999 17.0463 2 16.2413V7.7587C1.99999 6.95373 1.99998 6.28937 2.04419 5.74817C2.09012 5.18608 2.18868 4.66937 2.43597 4.18404C2.81947 3.43139 3.43139 2.81947 4.18404 2.43597C4.66937 2.18868 5.18608 2.09012 5.74817 2.04419C6.28937 1.99998 6.95373 1.99999 7.7587 2ZM5.91104 4.03755C5.47262 4.07337 5.24842 4.1383 5.09202 4.21799C4.7157 4.40973 4.40973 4.7157 4.21799 5.09202C4.1383 5.24842 4.07337 5.47262 4.03755 5.91104C4.00078 6.36113 4 6.94342 4 7.8V16.2C4 17.0566 4.00078 17.6389 4.03755 18.089C4.07337 18.5274 4.1383 18.7516 4.21799 18.908C4.40973 19.2843 4.7157 19.5903 5.09202 19.782C5.24842 19.8617 5.47262 19.9266 5.91104 19.9624C6.36113 19.9992 6.94342 20 7.8 20H16.2C17.0566 20 17.6389 19.9992 18.089 19.9624C18.5274 19.9266 18.7516 19.8617 18.908 19.782C19.2843 19.5903 19.5903 19.2843 19.782 18.908C19.8617 18.7516 19.9266 18.5274 19.9624 18.089C19.9992 17.6389 20 17.0566 20 16.2V7.8C20 6.94342 19.9992 6.36113 19.9624 5.91104C19.9266 5.47262 19.8617 5.24842 19.782 5.09202C19.5903 4.7157 19.2843 4.40973 18.908 4.21799C18.7516 4.1383 18.5274 4.07337 18.089 4.03755C17.6389 4.00078 17.0566 4 16.2 4H7.8C6.94342 4 6.36113 4.00078 5.91104 4.03755Z" fill="#801ED7"/>
<path d="M14.3575 6.98551C14.1841 6.69647 13.8767 6.51425 13.5399 6.5008C13.2031 6.48735 12.8822 6.64448 12.6863 6.91877L10.7812 9.58589L9.6 8.7C9.36777 8.52583 9.07132 8.46117 8.78766 8.52281C8.50399 8.58445 8.26111 8.76631 8.12211 9.02115L5.12211 14.5212C4.9531 14.831 4.95994 15.207 5.1401 15.5105C5.32026 15.814 5.64706 16 6 16H18C18.3603 16 18.6927 15.8062 18.8702 15.4927C19.0477 15.1792 19.0429 14.7944 18.8575 14.4855L14.3575 6.98551Z" fill="#801ED7"/>
</svg>
